X: 9
T: The Primrose Lasses
R: reel
M: 4/4
L: 1/8
K: Gmaj
| B2 BA G2 GE | DEGA BA ~A2 | B2BG ABGE | DEGA BG D2 |
B/c/d BA G2 GE | DEGA BA A2 | d2dB ABGE | DEGA BG D2 |
B/c/dgd edgd | Bdgd BAAc | B/c/d gd edgd | B2Ac BGD2 |
B/c/dgd edgd | Bdgd ba~a2 | b2af gedB | AcBA GED2 |


Tune 789	Setting 13925

